X:58
T:Parson's Farewell
R:march
B:"FIFTY OLD ENGLISH FOLK DANCE AIRS", Edgar H. Hunt ed., Schott & Co. Ltd. pub., London 1939
Z:2004-2014 John Chambers <jc:trillian.mit.edu>
M:2/2
L:1/8
K:Gm clef=treble
|:"Gm"(b2g2) g2(ab) | "F"(c'2f2) f3f |\
"Eb"(ga)b2 a2g2 | [1 "D"(f2d2) d4 :| [2 "D"(f2d2) d2 d'2 |]
|: "Bb"b4 b2d'2 | "Gm"b4 b2d'2 |\
"Bb"(bc')d'2 (bc')d'2 | "F"c'2a2 a4 |
"Cm"(ab)c'2 (ab)c'2 | "Gm"b2g2 "F"(ga)bc' |\
"Eb"d'2c'b "D"(ag)a2 | [1 "Gm"g6 d'2 :| [2 "Gm"g8 |]

